X: 1
T: the Bobers o' Brechin
S: from TheSession.org, Calum Pasqua
C: William Marshall (?)
B: The Athole Collection
B: RSCDS: Originally Ours
R: reel
M: 4/4
L: 1/8
K: Amix
c |\
"A"eaag a2eg | "G"dega egdg |\
[1,3 "A"eaag a2ea | "G"gedB "A"~A3 :|\
[2,4 "G"dega egdg | "G"egdB "A"~A3 :|
|: e |\
"A"A2eA cAef | "G"gedg BGdB |\
[1,3 "A"A2eA cAea | "G"gedB "A"~A3 :|\
[2,4 "A"ABcd efga | "G"gedB "A"~A3 :|[a2A2]
